svgs/duotone/square-a-lock.svg

<svg xmlns="http://www.w3.org/2000/svg" viewBox="0 0 576 512"><!--! Font Awesome Pro 6.4.0 by @fontawesome - https://fontawesome.com License - https://fontawesome.com/license (Commercial License) Copyright 2023 Fonticons, Inc. --><defs><style>.fa-secondary{opacity:.4}</style></defs><path class="fa-primary" d="M432 272v48h64V272c0-17.7-14.3-32-32-32s-32 14.3-32 32zm-48 48V272c0-44.2 35.8-80 80-80s80 35.8 80 80v48c17.7 0 32 14.3 32 32V480c0 17.7-14.3 32-32 32H384c-17.7 0-32-14.3-32-32V352c0-17.7 14.3-32 32-32z"/><path class="fa-secondary" d="M0 96C0 60.7 28.7 32 64 32H384c35.3 0 64 28.7 64 64v65.1c-54.3 7.8-96 54.4-96 110.9v24.6c-9.9 5.7-18.1 14-23.8 24L245.8 141.9c-3.9-8.5-12.4-13.9-21.8-13.9s-17.9 5.4-21.8 13.9l-96 208c-5.6 12-.3 26.3 11.7 31.8s26.3 .3 31.8-11.7l12-26.1H286.2l12 26.1c4 8.8 12.7 13.9 21.8 13.9v96H64c-35.3 0-64-28.7-64-64V96zM264 296H184l40-86.7L264 296z"/></svg>

<svg xmlns="http://www.w3.org/2000/svg" viewBox="0 0 576 512"><!--! Font Awesome Pro 6.3.0 by @fontawesome - https://fontawesome.com License - https://fontawesome.com/license (Commercial License) Copyright 2023 Fonticons, Inc. --><defs><style>.fa-secondary{opacity:.4}</style></defs><path class="fa-primary" d="M384 320V272C384 227.8 419.8 192 464 192C508.2 192 544 227.8 544 272V320C561.7 320 576 334.3 576 352V480C576 497.7 561.7 512 544 512H384C366.3 512 352 497.7 352 480V352C352 334.3 366.3 320 384 320V320zM432 320H496V272C496 254.3 481.7 240 464 240C446.3 240 432 254.3 432 272V320z"/><path class="fa-secondary" d="M0 96C0 60.65 28.65 32 64 32H384C419.3 32 448 60.65 448 96V161.1C393.7 168.9 351.1 215.6 351.1 272V296.6C342.1 302.3 333.9 310.6 328.2 320.6L245.8 141.9C241.9 133.4 233.4 127.1 224 127.1C214.6 127.1 206.1 133.4 202.2 141.9L106.2 349.9C100.7 361.1 105.9 376.2 117.9 381.8C129.1 387.3 144.2 382.1 149.8 370.1L161.8 343.1H286.2L298.2 370.1C302.3 378.8 310.9 384 319.1 384V480H64C28.65 480 0 451.3 0 416V96zM183.1 295.1L224 209.3L264 295.1H183.1z"/></svg>
